X: 6008
T: Canongate Twitch, The
R: reel
M: 4/4
K: Amajor
|:Acc/c/c dcBc|Acea e<fec|Acc/c/c dcBc|fBB/B/B aBfB|
ecc/c/c dcBc|Acea e<fec|ABcA B2AB|ceBd cA[1Ac:|2 A2||
|:aAAa fddf|e2ef ecBc|A/A/AAB Acea|fBBA Bdfa|
aAAa fddf|e2ef ecBc|ABcA B2AB|ceBd cA[1A2:|2 Ac||

